symbolic/32x32/apps/vivado_logo.svg

<svg xmlns="http://www.w3.org/2000/svg" width="32" height="32" version="1">
 <path style="opacity:0.2" d="M 9 2 L 11 12.541016 L 2 20.335938 L 2 31 L 11 23.205078 L 11 23.207031 L 21.294922 28.099609 L 31 23.726562 L 20.439453 18.675781 L 19.003906 8.3847656 L 9 2 z"/>
 <path style="fill:#acae26" d="M 19.003972,7.3845508 9,1 l 2,10.541786 0.425,9.033214 9.014954,-2.9 z"/>
 <path style="fill:#7b7c08" d="M 2,19.3361 11,11.541786 16.5,16.225 11,22.205684 2,30 Z"/>
 <path style="fill:#dbde63" d="M 20.439954,17.675 31,22.725678 21.294469,27.1 11,22.20625 11.425,13.325 Z"/>
 <path style="opacity:0.2;fill:#ffffff" d="M 11.425781 13.324219 L 11 22.207031 L 11.046875 22.228516 L 11.425781 14.324219 L 20.439453 18.675781 L 29.923828 23.210938 L 31 22.726562 L 20.439453 17.675781 L 11.425781 13.324219 z"/>
 <path style="opacity:0.2" d="M 20.439356,18.67475 11,12.541987 V 23.206 Z M 11,23.206 c 0,-5.66e-4 0,0 0,0 z"/>
 <path style="fill:#ffffff" d="M 20.439356,17.675 11,11.542237 V 22.20625 Z M 11,22.20625 c 0,-5.66e-4 0,0 0,0 z"/>
 <path style="opacity:0.2;fill:#ffffff" d="M 9 1 L 9.2167969 2.1386719 L 19.003906 8.3847656 L 20.306641 17.71875 L 20.439453 17.675781 L 19.003906 7.3847656 L 9 1 z"/>
 <path style="opacity:0.1;fill:#ffffff" d="M 11 11.541016 L 2 19.335938 L 2 20.335938 L 11 12.541016 L 15.984375 16.785156 L 16.5 16.224609 L 11 11.541016 z"/>
</svg>

<svg xmlns="http://www.w3.org/2000/svg" width="32" height="32" version="1"><path style="opacity:.2" d="m9 2 2 10.541-9 7.795V31l9-7.795v.002L21.295 28.1 31 23.727l-10.56-5.051-1.436-10.291L9 2z"/><path style="fill:#acae26" d="M19.004 7.385 9 1l2 10.542.425 9.033 9.015-2.9z"/><path style="fill:#7b7c08" d="m2 19.336 9-7.794 5.5 4.683-5.5 5.98L2 30z"/><path style="fill:#dbde63" d="M20.44 17.675 31 22.725 21.294 27.1 11 22.206l.425-8.881z"/><path style="opacity:.2;fill:#fff" d="M11.426 13.324 11 22.207l.047.022.379-7.905 9.013 4.352 9.485 4.535L31 22.727l-10.56-5.051-9.014-4.352z"/><path style="opacity:.2" d="M20.44 18.675 11 12.542v10.664zM11 23.206z"/><path style="fill:#fff" d="M20.44 17.675 11 11.542v10.664zM11 22.206z"/><path style="opacity:.2;fill:#fff" d="m9 1 .217 1.139 9.787 6.246 1.303 9.334.132-.043-1.435-10.291L9 1z"/><path style="opacity:.1;fill:#fff" d="m11 11.541-9 7.795v1l9-7.795 4.984 4.244.516-.56L11 11.54z"/></svg>
